X:8
T:Evit Gabrielle
M:2/2
L:1/8
K:Em
"Em"EFGF EFGF|EFGA BEGB|"C"cBAG "D"FGAF|"G"BAGB "B"F2 F2|
"Em"EFGF EFGF|EFGA BEGB|"C"cBAG "D"FGFB,|"Em"E8:|
"C"eAAe "D"dcBc|"G"dGGd cBAG|"Am"FGAc "B"BAGF|"Em"EFGA BEGB|
"C"eAAe "D"dcBc|"G"dGGd cBAG|"Am"FGAc "B"BAGF|"Em"EG "B"FD "Em"E4:|
